Suru++-Ubuntu/actions/symbolic/document-print-preview-symbolic.svg

<svg width="16" height="16" version="1.1" xmlns="http://www.w3.org/2000/svg" xmlns:osb="http://www.openswatchbook.org/uri/2009/osb">
 <g transform="translate(-172,-160)">
  <path transform="translate(172,160)" d="m1 0v16h9v-1h-8v-14h12v9h1v-10h-14zm7.0859375 4c-2.20322 0-4 1.79678-4 4s1.79678 4 4 4c0.9790738 0 1.8659582-0.369393 2.5625005-0.957031l1.992187 1.957031 0.699219-0.712891-2.00586-1.972656c0.468342-0.6549556 0.751954-1.4509032 0.751954-2.314453 0-2.20322-1.79679-4-4.0000005-4zm0 1c1.66277 0 3.0000005 1.33722 3.0000005 3s-1.3372305 3-3.0000005 3c-1.66278 0-3-1.33722-3-3s1.33722-3 3-3z" style="fill:#808080"/>
 </g>
</svg>

<?xml version="1.0" encoding="UTF-8" standalone="no"?>
<svg
   xmlns:osb="http://www.openswatchbook.org/uri/2009/osb"
   xmlns:dc="http://purl.org/dc/elements/1.1/"
   xmlns:cc="http://creativecommons.org/ns#"
   xmlns:rdf="http://www.w3.org/1999/02/22-rdf-syntax-ns#"
   xmlns:svg="http://www.w3.org/2000/svg"
   xmlns="http://www.w3.org/2000/svg"
   xmlns:sodipodi="http://sodipodi.sourceforge.net/DTD/sodipodi-0.dtd"
   xmlns:inkscape="http://www.inkscape.org/namespaces/inkscape"
   height="16"
   id="svg7384"
   version="1.1"
   width="16"
   sodipodi:docname="document-print-preview-symbolic.svg"
   inkscape:version="0.92.3 (2405546, 2018-03-11)">
  <sodipodi:namedview
     pagecolor="#ffffff"
     bordercolor="#666666"
     borderopacity="1"
     objecttolerance="10"
     gridtolerance="10"
     guidetolerance="10"
     inkscape:pageopacity="0"
     inkscape:pageshadow="2"
     inkscape:window-width="1361"
     inkscape:window-height="836"
     id="namedview15"
     showgrid="true"
     inkscape:zoom="41"
     inkscape:cx="8"
     inkscape:cy="8"
     inkscape:window-x="195"
     inkscape:window-y="96"
     inkscape:window-maximized="0"
     inkscape:current-layer="layer1">
    <inkscape:grid
       type="xygrid"
       id="grid825" />
  </sodipodi:namedview>
  <metadata
     id="metadata20854">
    <rdf:RDF>
      <cc:Work
         rdf:about="">
        <dc:title />
        <dc:format>image/svg+xml</dc:format>
        <dc:type
           rdf:resource="http://purl.org/dc/dcmitype/StillImage" />
      </cc:Work>
    </rdf:RDF>
  </metadata>
  <defs
     id="defs7386">
    <linearGradient
       id="linearGradient5606"
       osb:paint="solid">
      <stop
         id="stop5608"
         offset="0"
         style="stop-color:#000000;stop-opacity:1;" />
    </linearGradient>
    <linearGradient
       id="linearGradient4526"
       osb:paint="solid">
      <stop
         id="stop4528"
         offset="0"
         style="stop-color:#ffffff;stop-opacity:1;" />
    </linearGradient>
  </defs>
  <g
     id="layer9"
     label="status"
     style="display:inline"
     transform="translate(-413.0002,207)" />
  <g
     id="layer2"
     transform="translate(-172,-160)" />
  <g
     id="layer3"
     transform="translate(-172,-160)" />
  <g
     id="layer1"
     transform="translate(-172,-160)">
    <path
       style="color:#000000;display:inline;overflow:visible;visibility:visible;fill:#808080;fill-opacity:1;fill-rule:nonzero;stroke:none;stroke-width:4;marker:none;enable-background:accumulate"
       d="M 1 0 L 1 16 L 10 16 L 10 15 L 2 15 L 2 1 L 14 1 L 14 10 L 15 10 L 15 0 L 1 0 z M 8.0859375 4 C 5.8827175 4 4.0859375 5.79678 4.0859375 8 C 4.0859375 10.20322 5.8827175 12 8.0859375 12 C 9.0650113 12 9.9518957 11.630607 10.648438 11.042969 L 12.640625 13 L 13.339844 12.287109 L 11.333984 10.314453 C 11.802326 9.6594974 12.085938 8.8635498 12.085938 8 C 12.085938 5.79678 10.289148 4 8.0859375 4 z M 8.0859375 5 C 9.7487075 5 11.085938 6.33722 11.085938 8 C 11.085938 9.66278 9.7487075 11 8.0859375 11 C 6.4231575 11 5.0859375 9.66278 5.0859375 8 C 5.0859375 6.33722 6.4231575 5 8.0859375 5 z "
       transform="translate(172,160)"
       id="path5638" />
  </g>
</svg>
